app/dist/common/images/wiseway-limited.svg

<svg height="18" viewBox="0 0 18 18" width="18" xmlns="http://www.w3.org/2000/svg"><path d="m0 0h18v18h-18z" fill="#f0f3fa"/><path d="m3.81 11.2 1.19-4.2h.66l.15.7-1.27 4.3h-.7zm-.6-4.2.97 4.2-.08.8h-.8l-1.3-5h1.2zm3.62 4.19.97-4.19h1.2l-1.3 5h-.8zm-.81-4.19 1.18 4.22-.03.78h-.7l-1.27-4.3.16-.7z" fill="#341462"/><path d="m10.81 11.2 1.19-4.2h.66l.15.7-1.26 4.3h-.7l-.03-.8zm-.6-4.2.97 4.2-.08.8h-.79l-1.31-5h1.2zm3.62 4.19.97-4.19h1.2l-1.3 5h-.8zm-.81-4.19 1.18 4.22-.03.78h-.7l-1.27-4.3.16-.7z" fill="#f00"/></svg>

<!-- by TradingView --><svg width="18" height="18" viewBox="0 0 18 18" xmlns="http://www.w3.org/2000/svg"><path fill="#F0F3FA" d="M0 0h18v18H0z"/><path d="M3.81 11.2 5 7h.66l.15.7L4.54 12h-.7l-.03-.8ZM3.21 7l.97 4.2-.08.8H3.3L2 7h1.2Zm3.62 4.19L7.8 7H9l-1.3 5h-.8l-.07-.81ZM6.02 7l1.18 4.22-.03.78h-.7L5.2 7.7l.16-.7h.66Z" fill="#341462"/><path d="M10.81 11.2 12 7h.66l.15.7-1.26 4.3h-.7l-.03-.8Zm-.6-4.2.97 4.2-.08.8h-.79L9 7h1.2Zm3.62 4.19L14.8 7H16l-1.3 5h-.8l-.07-.81ZM13.02 7l1.18 4.22-.03.78h-.7L12.2 7.7l.16-.7h.66Z" fill="red"/></svg>
